platform/icons/src/expui/fileTypes/i18n.svg

<svg width="16" height="16" viewBox="0 0 16 16" fill="none" xmlns="http://www.w3.org/2000/svg">
<path d="M1.07996 3.16992L9.82996 3.23772Z" fill="black"/>
<path d="M1.07996 3.16992L9.82996 3.23772" stroke="#6C707E"/>
<path d="M5.25 1.48999V3.17999Z" fill="black"/>
<path d="M5.25 1.48999V3.17999" stroke="#6C707E" stroke-linecap="round"/>
<path d="M1.70996 10.7C4.70996 9.20002 7.02996 7.04002 7.69996 3.27002" stroke="#6C707E" stroke-linecap="round"/>
<path d="M2.83998 5.05005C2.83595 5.04592 4.00998 8.32005 8.05998 10.4601C8.34998 10.6131 7.97608 10.4163 8.03688 10.4364" stroke="#6C707E" stroke-linecap="round"/>
<path d="M7.15991 13.5L10.4599 5.39001L13.8099 13.55" stroke="#3574F0" stroke-linecap="round" stroke-linejoin="round"/>
<path d="M8.20996 11.3L12.68 11.3244" stroke="#3574F0" stroke-linecap="round" stroke-linejoin="round"/>
</svg>

<!-- Copyright 2000-2021 JetBrains s.r.o. Use of this source code is governed by the Apache 2.0 license that can be found in the LICENSE file. -->
<svg width="16" height="16" viewBox="0 0 16 16" xmlns="http://www.w3.org/2000/svg">
 <path d="m1.08 3.17 8.75 0.0678" stroke="#6c707e"/>
 <path d="m5.25 1.49v1.69" stroke="#6c707e" stroke-linecap="round"/>
 <g fill="none" stroke="#6c707e" stroke-linecap="round">
  <path d="m1.71 10.7c3-1.5 5.32-3.66 5.99-7.43"/>
  <path d="m2.84 5.05c-0.00403-0.00413 1.17 3.27 5.22 5.41 0.29 0.153-0.0839-0.0438-0.0231-0.0237"/>
  <path d="m7.16 13.5 3.3-8.11 3.35 8.16" stroke-linejoin="round" stroke="#3574F0"/>
  <path d="m8.21 11.3 4.47 0.0244" stroke-linejoin="round" stroke="#3574F0"/>
 </g>
</svg>
